**kern	**kern	**dynam
*part1	*part1	*part1
*staff2	*staff1	*
*I"Piano	*	*
*clefF4	*clefG2	*
*k[b-e-a-]	*k[b-e-a-]	*
=1	=1	=1
4C-X 4G-X 4c-X	4e- 4g-X 4cc-X 4ee-	>
4C- 4G- 4c-	4e- 4g- 4cc- 4ee-	.
4C- 4G- 4c-	4e- 4g- 4cc- 4ee-	.
=	=	=
4FF 4F	4e- 4f 4an 4ccn 4ee-	]
4FF 4F	4e- 4f 4a 4cc 4ee-	.
4FF 4F	4e- 4f 4a 4cc 4ee-	.
=	=	=
4FF 4F	4e- 4f 4an 4cc 4ee-	>
4FF 4F	4e- 4f 4a 4cc 4ee-	.
4FF 4F	4e- 4f 4a 4cc 4ee-	.
=	=	=
4BB- 4F	4d 4f 4b- 4dd	]
4BB- 4F	4d 4f 4b- 4dd	.
4BB- 4F	4d 4f 4b- 4dd	.
=	=	=
2BB-; 2F	2d; 2f 2b- 2dd	.
4r	4r	.
=	=	=
*tremolo	*	*
*	*tremolo	*
32F 32B-LLL	32f 32b- 32ddLLL	pp
32F 32B-	32f 32b- 32dd	.
32F 32B-	32f 32b- 32dd	.
32F 32B-	32f 32b- 32dd	.
32F 32B-	32f 32b- 32dd	.
32F 32B-	32f 32b- 32dd	.
32F 32B-	32f 32b- 32dd	.
32F 32B-	32f 32b- 32dd	.
32F 32B-	32f 32b- 32dd	.
32F 32B-	32f 32b- 32dd	.
32F 32B-	32f 32b- 32dd	.
32F 32B-	32f 32b- 32dd	.
32F 32B-	32f 32b- 32dd	.
32F 32B-	32f 32b- 32dd	.
32F 32B-	32f 32b- 32dd	.
32F 32B-JJJ	32f 32b- 32ddJJJ	.
8F 8B-	8f 8b- 8dd	p <
8r	8r	.
=	=	=
32F 32BnLLL	32f 32a- 32ddLLL	[ mp
32F 32Bn	32f 32a- 32dd	.
32F 32Bn	32f 32a- 32dd	.
32F 32Bn	32f 32a- 32dd	.
32F 32Bn	32f 32a- 32dd	.
32F 32Bn	32f 32a- 32dd	.
32F 32Bn	32f 32a- 32dd	.
32F 32Bn	32f 32a- 32dd	.
32F 32Bn	32f 32a- 32dd	.
32F 32Bn	32f 32a- 32dd	.
32F 32Bn	32f 32a- 32dd	.
32F 32Bn	32f 32a- 32dd	.
32F 32Bn	32f 32a- 32dd	.
32F 32Bn	32f 32a- 32dd	.
32F 32Bn	32f 32a- 32dd	.
32F 32BnJJJ	32f 32a- 32ddJJJ	.
*	*Xtremolo	*
*Xtremolo	*	*
8F 8B	8f 8a- 8dd	mf
8r	8r	.
=	=	=
*-	*-	*-
!!!system-decoration: {(s1,s2)}
